flaticon/gastronomy/can.svg

<svg xmlns="http://www.w3.org/2000/svg" width="32" height="32" viewBox="0 0 24 24">
    <path d="M 8.867188 9.199219 C 8.851562 9.214844 8.839844 9.230469 8.824219 9.242188 C 8.730469 9.328125 8.640625 9.417969 8.554688 9.511719 C 8.53125 9.539062 8.503906 9.566406 8.480469 9.59375 C 8.394531 9.6875 8.316406 9.789062 8.242188 9.886719 C 8.21875 9.917969 8.199219 9.941406 8.179688 9.972656 C 8.101562 10.078125 8.03125 10.1875 7.960938 10.304688 C 7.949219 10.328125 7.933594 10.347656 7.917969 10.375 C 7.847656 10.496094 7.785156 10.621094 7.726562 10.75 C 7.71875 10.765625 7.710938 10.785156 7.703125 10.800781 C 7.640625 10.9375 7.585938 11.078125 7.539062 11.222656 C 7.535156 11.234375 7.53125 11.242188 7.527344 11.25 C 7.480469 11.398438 7.4375 11.546875 7.40625 11.699219 C 7.402344 11.707031 7.402344 11.714844 7.398438 11.726562 C 7.367188 11.871094 7.34375 12.019531 7.328125 12.171875 C 7.324219 12.1875 7.320312 12.199219 7.320312 12.210938 C 7.304688 12.375 7.292969 12.539062 7.292969 12.707031 C 7.292969 15.300781 9.40625 17.410156 12 17.410156 C 12.152344 17.410156 12.304688 17.402344 12.453125 17.390625 C 12.519531 17.382812 12.585938 17.371094 12.648438 17.363281 C 12.730469 17.351562 12.8125 17.339844 12.890625 17.324219 C 12.972656 17.308594 13.050781 17.289062 13.132812 17.269531 C 13.195312 17.253906 13.253906 17.238281 13.316406 17.222656 C 13.402344 17.195312 13.488281 17.167969 13.574219 17.136719 C 13.625 17.117188 13.675781 17.101562 13.722656 17.082031 C 13.8125 17.046875 13.902344 17.007812 13.988281 16.964844 C 14.03125 16.945312 14.074219 16.925781 14.117188 16.902344 C 14.207031 16.855469 14.292969 16.808594 14.378906 16.757812 C 14.417969 16.734375 14.457031 16.714844 14.492188 16.6875 C 14.582031 16.632812 14.664062 16.578125 14.75 16.515625 C 14.78125 16.492188 14.816406 16.46875 14.847656 16.441406 C 14.933594 16.378906 15.015625 16.3125 15.09375 16.242188 C 15.105469 16.230469 15.121094 16.222656 15.132812 16.210938 C 15.136719 16.207031 15.140625 16.199219 15.144531 16.195312 C 16.101562 15.335938 16.707031 14.089844 16.707031 12.707031 C 16.707031 10.109375 14.59375 8 12 8 C 10.800781 8 9.710938 8.453125 8.878906 9.195312 C 8.875 9.195312 8.871094 9.195312 8.867188 9.199219 Z M 8.234375 12.707031 C 8.234375 12.578125 8.242188 12.457031 8.253906 12.332031 C 8.339844 11.472656 8.722656 10.667969 9.335938 10.050781 C 10.601562 10.292969 11.53125 11.398438 11.53125 12.707031 C 11.53125 14.191406 12.417969 15.484375 13.71875 16.050781 C 13.714844 16.054688 13.707031 16.054688 13.703125 16.058594 C 13.585938 16.117188 13.46875 16.167969 13.351562 16.214844 C 13.324219 16.226562 13.292969 16.238281 13.265625 16.246094 C 13.164062 16.285156 13.058594 16.316406 12.949219 16.34375 C 12.917969 16.351562 12.882812 16.363281 12.847656 16.371094 C 12.742188 16.394531 12.636719 16.414062 12.527344 16.429688 C 12.492188 16.433594 12.460938 16.441406 12.425781 16.445312 C 12.285156 16.460938 12.144531 16.46875 12 16.46875 C 9.925781 16.46875 8.234375 14.78125 8.234375 12.707031 Z M 15.765625 12.707031 C 15.765625 13.738281 15.347656 14.671875 14.675781 15.351562 C 13.40625 15.113281 12.46875 14.015625 12.46875 12.707031 C 12.46875 11.21875 11.578125 9.925781 10.277344 9.363281 C 10.792969 9.09375 11.378906 8.941406 12 8.941406 C 14.074219 8.941406 15.765625 10.628906 15.765625 12.707031 Z M 15.765625 12.707031"/>
    <path d="M 18.246094 1.363281 C 17.933594 1.238281 17.648438 0.8125 17.648438 0.46875 C 17.648438 0.210938 17.4375 0 17.175781 0 L 6.824219 0 C 6.5625 0 6.351562 0.214844 6.351562 0.476562 C 6.351562 0.816406 6.066406 1.238281 5.753906 1.363281 C 4.972656 1.675781 4.46875 2.417969 4.46875 3.253906 L 4.46875 20.746094 C 4.46875 21.582031 4.972656 22.324219 5.753906 22.636719 C 6.066406 22.761719 6.351562 23.1875 6.351562 23.53125 C 6.351562 23.789062 6.5625 24 6.824219 24 L 17.175781 24 C 17.4375 24 17.648438 23.785156 17.648438 23.523438 C 17.648438 23.183594 17.933594 22.761719 18.246094 22.636719 C 19.027344 22.324219 19.53125 21.582031 19.53125 20.746094 L 19.53125 3.253906 C 19.53125 2.417969 19.027344 1.675781 18.246094 1.363281 Z M 18.589844 20.746094 C 18.589844 21.195312 18.316406 21.597656 17.898438 21.761719 C 17.375 21.972656 16.9375 22.492188 16.773438 23.058594 L 7.226562 23.058594 C 7.0625 22.496094 6.625 21.972656 6.101562 21.761719 C 5.683594 21.597656 5.410156 21.195312 5.410156 20.746094 L 5.410156 3.253906 C 5.410156 2.804688 5.683594 2.402344 6.101562 2.238281 C 6.625 2.027344 7.0625 1.507812 7.226562 0.941406 L 16.773438 0.941406 C 16.9375 1.503906 17.375 2.027344 17.898438 2.238281 C 18.316406 2.402344 18.589844 2.804688 18.589844 3.253906 Z M 18.589844 20.746094"/>
    <path d="M6.824219 3.765625L9.175781 3.765625C9.4375 3.765625 9.648438 3.554688 9.648438 3.292969 9.648438 3.035156 9.4375 2.824219 9.175781 2.824219L6.824219 2.824219C6.5625 2.824219 6.351562 3.035156 6.351562 3.292969 6.351562 3.554688 6.5625 3.765625 6.824219 3.765625zM17.175781 2.824219L11.058594 2.824219C10.796875 2.824219 10.589844 3.035156 10.589844 3.292969 10.589844 3.554688 10.796875 3.765625 11.058594 3.765625L17.175781 3.765625C17.4375 3.765625 17.648438 3.554688 17.648438 3.292969 17.648438 3.035156 17.4375 2.824219 17.175781 2.824219zM9.175781 20.707031L6.824219 20.707031C6.5625 20.707031 6.351562 20.917969 6.351562 21.175781 6.351562 21.4375 6.5625 21.648438 6.824219 21.648438L9.175781 21.648438C9.4375 21.648438 9.648438 21.4375 9.648438 21.175781 9.648438 20.917969 9.4375 20.707031 9.175781 20.707031zM17.175781 20.707031L11.058594 20.707031C10.796875 20.707031 10.589844 20.917969 10.589844 21.175781 10.589844 21.4375 10.796875 21.648438 11.058594 21.648438L17.175781 21.648438C17.4375 21.648438 17.648438 21.4375 17.648438 21.175781 17.648438 20.917969 17.4375 20.707031 17.175781 20.707031zM17.175781 20.707031"/>
</svg>

<svg xmlns="http://www.w3.org/2000/svg" width="32" height="32" viewBox="0 0 24 24">
    <path d="M8.867 9.2c-.015.015-.027.03-.043.042a4.385 4.385 0 0 0-.27.27c-.023.027-.05.054-.074.082a4.115 4.115 0 0 0-.238.293c-.023.031-.043.054-.062.086a4.064 4.064 0 0 0-.22.332c-.01.023-.026.043-.042.07-.07.121-.133.246-.191.375l-.024.05a3.93 3.93 0 0 0-.164.423.19.19 0 0 1-.012.027c-.047.148-.09.297-.12.45-.005.007-.005.015-.009.027a4.071 4.071 0 0 0-.07.445c-.004.015-.008.027-.008.039a4.711 4.711 0 0 0 5.133 5.18c.067-.008.133-.02.195-.028.082-.011.165-.023.243-.039.082-.015.16-.035.242-.054.062-.016.12-.032.183-.047.086-.028.172-.055.258-.086.051-.02.102-.035.149-.055.09-.035.18-.074.265-.117.043-.02.086-.04.13-.063.089-.047.175-.093.26-.144.04-.024.079-.043.114-.07.09-.055.172-.11.258-.172.031-.024.066-.047.098-.075.086-.062.168-.128.246-.199.011-.012.027-.02.039-.031l.012-.016a4.681 4.681 0 0 0 1.562-3.488A4.712 4.712 0 0 0 12 8c-1.2 0-2.29.453-3.121 1.195-.004 0-.008 0-.012.004zm-.633 3.507a3.77 3.77 0 0 1 1.102-2.656 2.702 2.702 0 0 1 2.195 2.656c0 1.484.887 2.777 2.188 3.344-.004.004-.012.004-.016.008a4.609 4.609 0 0 1-.437.187 2.71 2.71 0 0 1-.317.098c-.031.008-.066.02-.101.027-.106.024-.211.043-.32.059-.036.004-.067.011-.102.015a3.77 3.77 0 0 1-4.191-3.738zm7.532 0a3.752 3.752 0 0 1-1.09 2.645 2.693 2.693 0 0 1-2.207-2.645c0-1.488-.89-2.781-2.192-3.344A3.708 3.708 0 0 1 12 8.941a3.77 3.77 0 0 1 3.766 3.766zm0 0"/>
    <path d="M18.246 1.363c-.312-.125-.598-.55-.598-.894A.471.471 0 0 0 17.176 0H6.824a.475.475 0 0 0-.472.477c0 .34-.286.761-.598.886a2.029 2.029 0 0 0-1.285 1.89v17.493c0 .836.504 1.578 1.285 1.89.312.126.598.552.598.895 0 .258.21.469.472.469h10.352a.475.475 0 0 0 .472-.477c0-.34.286-.761.598-.886a2.029 2.029 0 0 0 1.285-1.89V3.253c0-.836-.504-1.578-1.285-1.89zm.344 19.383c0 .45-.274.852-.692 1.016-.523.21-.96.73-1.125 1.297H7.227c-.165-.563-.602-1.086-1.125-1.297a1.09 1.09 0 0 1-.692-1.016V3.254c0-.45.274-.852.692-1.016.523-.21.96-.73 1.125-1.297h9.546c.165.563.602 1.086 1.125 1.297.418.164.692.567.692 1.016zm0 0"/>
    <path d="M6.824 3.766h2.352a.472.472 0 1 0 0-.942H6.824a.471.471 0 1 0 0 .942zm0 0M17.176 2.824h-6.117a.468.468 0 0 0-.47.469c0 .262.208.473.47.473h6.117a.472.472 0 1 0 0-.942zm0 0M9.176 20.707H6.824a.471.471 0 1 0 0 .941h2.352a.472.472 0 1 0 0-.941zm0 0M17.176 20.707h-6.117a.468.468 0 0 0-.47.469c0 .262.208.472.47.472h6.117a.472.472 0 1 0 0-.941zm0 0"/>
</svg>
